X:1
T:Flowers of the Valley
M:4/4
L:1/8
K:G
 D2D-D D2 A2| c2 BBA-A z2| D2 EF GG FE| E4 D2| D2D-D D2 A2| c2 BBA-A z2|\
 D2 EF G2 FE| E4 D2| A/2 A3/2 A/2 A3/2 A/2 A3/2 A2| A2 FF E2 D2| d2 cB AB cB|\
 A6 A2| D2 EF G2 FE| E4 D2||
